vendor/shopware/storefront/Resources/app/storefront/dist/assets/icon/default/align-justify.svg

<svg xmlns="http://www.w3.org/2000/svg" width="24" height="24" viewBox="0 0 24 24">
  <path fill="#758CA3" fill-rule="evenodd" d="M3,5 C2.44771525,5 2,4.55228475 2,4 C2,3.44771525 2.44771525,3 3,3 L21,3 C21.5522847,3 22,3.44771525 22,4 C22,4.55228475 21.5522847,5 21,5 L3,5 Z M3,9 C2.44771525,9 2,8.55228475 2,8 C2,7.44771525 2.44771525,7 3,7 L21,7 C21.5522847,7 22,7.44771525 22,8 C22,8.55228475 21.5522847,9 21,9 L3,9 Z M3,13 C2.44771525,13 2,12.5522847 2,12 C2,11.4477153 2.44771525,11 3,11 L21,11 C21.5522847,11 22,11.4477153 22,12 C22,12.5522847 21.5522847,13 21,13 L3,13 Z M3,17 C2.44771525,17 2,16.5522847 2,16 C2,15.4477153 2.44771525,15 3,15 L21,15 C21.5522847,15 22,15.4477153 22,16 C22,16.5522847 21.5522847,17 21,17 L3,17 Z M3,21 C2.44771525,21 2,20.5522847 2,20 C2,19.4477153 2.44771525,19 3,19 L21,19 C21.5522847,19 22,19.4477153 22,20 C22,20.5522847 21.5522847,21 21,21 L3,21 Z"/>
</svg>

<svg xmlns="http://www.w3.org/2000/svg" width="24" height="24" viewBox="0 0 24 24"><path fill="#758CA3" fill-rule="evenodd" d="M3 5c-.5523 0-1-.4477-1-1s.4477-1 1-1h18c.5523 0 1 .4477 1 1s-.4477 1-1 1H3zm0 4c-.5523 0-1-.4477-1-1s.4477-1 1-1h18c.5523 0 1 .4477 1 1s-.4477 1-1 1H3zm0 4c-.5523 0-1-.4477-1-1s.4477-1 1-1h18c.5523 0 1 .4477 1 1s-.4477 1-1 1H3zm0 4c-.5523 0-1-.4477-1-1s.4477-1 1-1h18c.5523 0 1 .4477 1 1s-.4477 1-1 1H3zm0 4c-.5523 0-1-.4477-1-1s.4477-1 1-1h18c.5523 0 1 .4477 1 1s-.4477 1-1 1H3z"/></svg>
